X: 40
T:Daniel Cooper. JaW.040
M:C
L:1/8
Q:200
S:James Winder Ms, Lancashire, 1835-41
R:Reel
O:England
A:Wyresdale,Lancashire
H:1/8
Z:vmp.Chris Partington, Aug 2004
K:G
|:d2g2 fedf|edce d2d2:||:BGGB cAAc|!
BGGB d2g2|BGGB cAAc|BGAF G2G2:|]
